X: 32942
T: President Garfield's
R: hornpipe
M: 4/4
K: Gmajor
|:B>A|G>D[B,3/2B3/2]D/ G>D[B,3/2B3/2]D/|G>FG>A B>^AB>c|d>AF>A d>AF>A|d>^cd>e d>=cB>A|
G>D[B,3/2B3/2]D/ G>D[B,3/2B3/2]D/|G>FG>A B>^AB>c|d>ef>e d>cB>A|(3GAG F>A G2:|
|:(3agf|e>cG>E [C3/2c3/2]E/G>e|d>BG>D [B,3/2B3/2]D/G>d|^c>de>d =c>AF>A|G>AB>c d>Gg>f|
e>cG>E [C3/2c3/2]E/G>e|d>BG>D [B,3/2B3/2]D/G>d|^c>df>e d>=cB>A|G2 F2 G2:|

